src/assets/svg-icons/house-icon.svg

<svg width="16" height="16" viewBox="0 0 16 16" fill="none" xmlns="http://www.w3.org/2000/svg">
<g clip-path="url(#clip0_2480_26800)">
<path d="M8.16289 3.46736C8.11927 3.42563 8.06124 3.40234 8.00088 3.40234C7.94052 3.40234 7.88248 3.42563 7.83887 3.46736L2.44531 8.61979C2.42241 8.64171 2.40418 8.66804 2.39175 8.69719C2.37931 8.72635 2.37291 8.75773 2.37295 8.78942L2.37207 13.6252C2.37207 13.8738 2.47084 14.1123 2.64666 14.2881C2.82247 14.4639 3.06093 14.5627 3.30957 14.5627H6.125C6.24932 14.5627 6.36855 14.5133 6.45645 14.4254C6.54436 14.3375 6.59375 14.2182 6.59375 14.0939V10.1095C6.59375 10.0474 6.61844 9.98777 6.6624 9.94381C6.70635 9.89986 6.76596 9.87517 6.82812 9.87517H9.17187C9.23403 9.87517 9.29365 9.89986 9.3376 9.94381C9.38155 9.98777 9.40625 10.0474 9.40625 10.1095V14.0939C9.40625 14.2182 9.45563 14.3375 9.54354 14.4254C9.63145 14.5133 9.75068 14.5627 9.875 14.5627H12.6893C12.9379 14.5627 13.1764 14.4639 13.3522 14.2881C13.528 14.1123 13.6268 13.8738 13.6268 13.6252V8.78942C13.6268 8.75773 13.6204 8.72635 13.608 8.69719C13.5955 8.66804 13.5773 8.64171 13.5544 8.61979L8.16289 3.46736Z" fill="white"/>
<path d="M14.8826 7.65381L12.6912 5.55732V2.37598C12.6912 2.25166 12.6418 2.13243 12.5539 2.04452C12.466 1.95661 12.3468 1.90723 12.2225 1.90723H10.8162C10.6919 1.90723 10.5727 1.95661 10.4848 2.04452C10.3969 2.13243 10.3475 2.25166 10.3475 2.37598V3.31348L8.65059 1.69102C8.4918 1.53047 8.25567 1.43848 8.0005 1.43848C7.7462 1.43848 7.51065 1.53047 7.35186 1.69131L1.12042 7.65322C0.938195 7.829 0.915343 8.11816 1.08116 8.30859C1.1228 8.35666 1.17379 8.39575 1.23102 8.42349C1.28824 8.45122 1.35052 8.46703 1.41405 8.46993C1.47758 8.47284 1.54103 8.46278 1.60055 8.44039C1.66007 8.41799 1.71441 8.38371 1.76026 8.33965L7.83936 2.53066C7.88298 2.48894 7.94102 2.46565 8.00138 2.46565C8.06174 2.46565 8.11977 2.48894 8.16339 2.53066L14.2431 8.33965C14.3326 8.42553 14.4526 8.4724 14.5766 8.46999C14.7007 8.46757 14.8187 8.41606 14.9049 8.32676C15.0848 8.14043 15.0698 7.83281 14.8826 7.65381Z" fill="white"/>
</g>
<defs>
<clipPath id="clip0_2480_26800">
<rect width="15" height="15" fill="white" transform="translate(0.5 0.5)"/>
</clipPath>
</defs>
</svg>

<svg xmlns="http://www.w3.org/2000/svg" width="16" height="16" fill="none" viewBox="0 0 16 16"><g fill="#fff" clip-path="url(#a)"><path d="M8.163 3.467a.234.234 0 0 0-.324 0L2.445 8.62a.234.234 0 0 0-.072.17v4.835a.937.937 0 0 0 .937.938h2.815a.469.469 0 0 0 .469-.47V10.11a.234.234 0 0 1 .234-.235h2.344a.234.234 0 0 1 .234.235v3.984a.469.469 0 0 0 .469.469h2.814a.938.938 0 0 0 .938-.938V8.79a.236.236 0 0 0-.073-.17L8.163 3.468Z"/><path d="M14.883 7.654 12.69 5.557V2.376a.469.469 0 0 0-.469-.469h-1.406a.469.469 0 0 0-.469.469v.937L8.652 1.691A.912.912 0 0 0 8 1.438a.91.91 0 0 0-.65.253L1.12 7.653a.478.478 0 0 0-.04.656.469.469 0 0 0 .68.03l6.078-5.808a.234.234 0 0 1 .324 0l6.08 5.809a.469.469 0 0 0 .662-.013.48.48 0 0 0-.022-.673Z"/></g><defs><clipPath id="a"><path fill="#fff" d="M.5.5h15v15H.5z"/></clipPath></defs></svg>
